!!!!SEGMENT: pl-sa--l-1643--041_anonim--hodie-christus-natus-est.krn
!!!cenid: 16xx:1396
!!!COM: Anonim
!!!COM-rismid: pe30004985
!!!CDT:
!!!CNT:
!!!OTL: Hodie Christus natus est
!!!PDT:
!!!AGN: Sacred
!!!SMS-siglum: PL-SA
!!!SMS-shelfmark: L 1643
!!!SMS-shelfwork: 041 W
!!!SMS-variant:
!!!SMS-altvar:
!!!NIFC-rismid: 1001064251
!!!URL-scan: http://repozytorium.nifc.pl/skany/pl-sa-nut--l1643
!!!ONB-nifc: UWAGA: 8 ksiąg. Primi chori: 1mus Cantus (69-70), C 2dus (69-70), C 3tius (67-69), Bassus (65-66); Secondi chori: Primus Cantus (66), C 2dus (69-70), Altus (66-67), Bassus (67). UWAGA: metrum 2/2 i 3/2. Nie dodawać pustych linii, chyba że w rękopisie pojawiają się dodatkowe oznaczenia dotyczące pełnej obsady (a 4, a 8 itp.)
!!!key: C:dor
**kern	**text	**kern	**text	**kern	**text	**kern	**text	**kern	**text	**kern	**text	**kern	**text	**kern	**text
*part8	*part8	*part7	*part7	*part6	*part6	*part5	*part5	*part4	*part4	*part3	*part3	*part2	*part2	*part1	*part1
*staff8	*staff8	*staff7	*staff7	*staff6	*staff6	*staff5	*staff5	*staff4	*staff4	*staff3	*staff3	*staff2	*staff2	*staff1	*staff1
*I"Baſsus 2di Chori	*	*I"Altus secundi Chori.	*	*I"Cantus 2dus Secundi Chori.	*	*I"Primus Cantus 2di Chori	*	*I"Bassus Primi Chori.	*	*I"Cantus 3tius Primi Chori	*	*I"Cantus 2dus Primi Chori.	*	*I"Im(us) Cantus Primi Chori	*
*I'II Coro B	*	*I'II Coro A	*	*I'II Coro S 2	*	*I'II Coro S 1	*	*I'I Coro B	*	*I'I Coro S 3	*	*I'I Coro S 2	*	*I'I Coro S 1	*
*Ibass	*	*Ialto	*	*Isoprn	*	*Isoprn	*	*Ibass	*	*Isoprn	*	*Isoprn	*	*Isoprn	*
*ICvox	*	*ICvox	*	*ICvox	*	*ICvox	*	*ICvox	*	*ICvox	*	*ICvox	*	*ICvox	*
*IGcoro	*	*IGcoro	*	*IGcoro	*	*IGcoro	*	*IGcoro	*	*IGcoro	*	*IGcoro	*	*IGcoro	*
*clefC4	*	*clefC2	*	*clefC1	*	*clefG2	*	*clefC4	*	*clefC2	*	*clefC1	*	*clefG2	*
*k[]	*	*k[]	*	*k[]	*	*k[]	*	*k[]	*	*k[]	*	*k[]	*	*k[]	*
*C:	*	*C:	*	*C:	*	*C:	*	*C:	*	*C:	*	*C:	*	*C:	*
*M2/1	*	*M2/1	*	*M2/1	*	*M2/1	*	*M2/1	*	*M2/1	*	*M2/1	*	*M2/1	*
*met(C|)	*	*met(C|)	*	*met(C|)	*	*met(C|)	*	*met(C|)	*	*met(C|)	*	*met(C|)	*	*met(C|)	*
=1-	=1-	=1-	=1-	=1-	=1-	=1-	=1-	=1-	=1-	=1-	=1-	=1-	=1-	=1-	=1-
!LO:TX:a:t=Pro Festo Natiuitatis Domini Ad Magnificat.	!	!LO:TX:a:t=Pro Festo Na\ntiuitatis Domini \nAd Magnificat.	!	!LO:TX:a:t=Pro Festo Natiuitatis Domini Ad Magnificat.	!	!LO:TX:a:t=Pro Festo Natiuitatis Domini Ad Magnificat.	!	!LO:TX:a:t=Pro Festa \nNatiuita\ntis D(omi)ni Ad Mag(nifica)t	!	!LO:TX:a:t=Pro Festo \nNatiuitatis \nD(omi)ni Ad Mag(nifica)t	!	!LO:TX:a:t=Pro Festo \nNatiuitatis \nD(omi)ni Ad Magn(ificat).	!	!LO:TX:a:t=Pro Festo Na\ntiuitatis D(omi)ni \nAd Magnificat.	!
00r	.	00r	.	00r	.	00r	.	00r	.	00r	.	00r	.	2.cc\	Ho-
.	.	.	.	.	.	.	.	.	.	.	.	.	.	4cc\	-di-
.	.	.	.	.	.	.	.	.	.	.	.	.	.	2cc\	-e
.	.	.	.	.	.	.	.	.	.	.	.	.	.	1dd\	Chris-
=2-	=2-	=2-	=2-	=2-	=2-	=2-	=2-	=2-	=2-	=2-	=2-	=2-	=2-	=2-	=2-
.	.	.	.	.	.	.	.	.	.	.	.	.	.	.	.
.	.	.	.	.	.	.	.	.	.	.	.	.	.	2ee\	-tus
.	.	.	.	.	.	.	.	.	.	.	.	.	.	2ff\	na-
.	.	.	.	.	.	.	.	.	.	.	.	.	.	2dd\	-tus
=3-	=3-	=3-	=3-	=3-	=3-	=3-	=3-	=3-	=3-	=3-	=3-	=3-	=3-	=3-	=3-
1r	.	1r	.	1r	.	1r	.	1r	.	1r	.	1r	.	1ee	est
2.C/	Ho-	2.e/	Ho-	1.g	Ho-	1.cc	Ho-	1.c	Ho-	1.g	Ho-	1.cc	Ho-	1.ee	ho-
4D/	.	4f\	.	.	.	.	.	.	.	.	.	.	.	.	.
=4-	=4-	=4-	=4-	=4-	=4-	=4-	=4-	=4-	=4-	=4-	=4-	=4-	=4-	=4-	=4-
2E/	.	2g\	.	.	.	.	.	.	.	.	.	.	.	.	.
2F/	-di-	2c/	-di-	2a\	-di-	2cc\	-di-	2F/	-di-	2a\	-di-	2cc\	-di-	2ff\	-di-
!	!	!LO:TX:t=P:problem:oddech jako rozdzielacz słów:global	!	!	!	!	!	!	!	!	!	!	!	!	!
1C	-e	1g,<	-e	2g/	-e	1cc	-e	1c	-e	1g	-e	1cc	-e	1ee	-e
.	.	.	.	1cc\	Chri-	.	.	.	.	.	.	.	.	.	.
=5-	=5-	=5-	=5-	=5-	=5-	=5-	=5-	=5-	=5-	=5-	=5-	=5-	=5-	=5-	=5-
1.G	Chri-	1.g	Chri-	.	.	2.dd\	Chris-	00r	.	00r	.	00r	.	00r	.
.	.	.	.	4b\	.	.	.	.	.	.	.	.	.	.	.
.	.	.	.	4a\	.	4cc\	.	.	.	.	.	.	.	.	.
.	.	.	.	2b\	.	2dd\	.	.	.	.	.	.	.	.	.
2E/	-stus	2g\	-stus	2g/	-stus	2ee\	-tus	.	.	.	.	.	.	.	.
=6-	=6-	=6-	=6-	=6-	=6-	=6-	=6-	=6-	=6-	=6-	=6-	=6-	=6-	=6-	=6-
2D/	na-	2f\	na-	2a\	na-	2ff\	na-	.	.	.	.	.	.	.	.
2G/	-tus	2g\	-tus	2b\	-tus	2dd\	-tus	.	.	.	.	.	.	.	.
1c	est	1g	est	1cc	est	1ee	est	.	.	.	.	.	.	.	.
=7-	=7-	=7-	=7-	=7-	=7-	=7-	=7-	=7-	=7-	=7-	=7-	=7-	=7-	=7-	=7-
*M3/2	*	*M3/2	*	*M3/2	*	*M3/2	*	*M3/2	*	*M3/2	*	*M3/2	*	*M3/2	*
00.r	.	00.r	.	00.r	.	00.r	.	1c	No-	1e	No-	1cc	No-	1gg	No-
.	.	.	.	.	.	.	.	1d	-è(l)	1f	-è(l)	1a	-è(l)	1ff	-è(l)
!	!	!	!	!	!	!	!	!	!	!	!	!	!	!LO:SIC:v:t=custos ee	!
.	.	.	.	.	.	.	.	1G	No-	1g	No-	1b	No-	1dd	No-
!	!	!	!	!	!	!	!	!	!	!	!	!	!	!LO:LB:g=original	!
=8-	=8-	=8-	=8-	=8-	=8-	=8-	=8-	=8-	=8-	=8-	=8-	=8-	=8-	=8-	=8-
.	.	.	.	.	.	.	.	1.c	-è(l)	1.g	-è(l)	1.cc	-è(l)	1.ee	-è(l)
.	.	.	.	.	.	.	.	2G/	No-	2g\	No-	2b\	No-	2dd\	No-
.	.	.	.	.	.	.	.	1A	-è(l)	1e	-è(l)	1a	-è(l)	1cc	-è(l)
=9-	=9-	=9-	=9-	=9-	=9-	=9-	=9-	=9-	=9-	=9-	=9-	=9-	=9-	=9-	=9-
0.r	.	0.r	.	0.r	.	0.r	.	1E	Al-	1g	Al-	1cc	No-	1gg	No-
.	.	.	.	.	.	.	.	1F	-l(e-	1a	-l(e-	1cc	-è(l)	1ff	-è(l)
.	.	.	.	.	.	.	.	1G	-lu-	1g	-lu-	1b	No-	1dd	No-
=10-	=10-	=10-	=10-	=10-	=10-	=10-	=10-	=10-	=10-	=10-	=10-	=10-	=10-	=10-	=10-
1c	No-	1e	No-	1cc	No-	1gg	No-	1c	-i)a	1g	-i)a	1cc	-è(l)	1ee	-è(l)
1d	-è(l)	1d	-è(l)	1a	-è(l)	1ff	-è(l)	1r	.	1r	.	1r	.	1r	.
1G	No-	1g	No-	1b	No-	1dd	No-	1r	.	1r	.	1r	.	1r	.
=11-	=11-	=11-	=11-	=11-	=11-	=11-	=11-	=11-	=11-	=11-	=11-	=11-	=11-	=11-	=11-
!	!	!	!	!	!	!	!	!	!	!	!	!LO:SIC:v:t=custos cc	!	!	!
1.c	-è(l)	1.g	-è(l)	1.cc	-è(l)	1.ee	-è(l)	00.r	.	00.r	.	00.r	.	00.r	.
2G/	No-	2g\	No-	2b\	No-	2dd\	No-	.	.	.	.	.	.	.	.
!	!	!	!	!LO:TX:t=P:problem:oddech jako rozdzielacz słów:global	!	!LO:TX:t=P:problem:oddech jako rozdzielacz słów:global	!	!	!	!	!	!	!	!	!
1A	-è(l)	1e,<	-è(l)	1a,<	-è(l)	1cc,<	-è(l)	.	.	.	.	.	.	.	.
=12-	=12-	=12-	=12-	=12-	=12-	=12-	=12-	=12-	=12-	=12-	=12-	=12-	=12-	=12-	=12-
!	!	!LO:SIC:v:t=custos d	!	!	!	!	!	!	!	!	!	!	!	!	!
1E	Al-	1e	Al-	1g	Al-	1cc	Al-	.	.	.	.	.	.	.	.
!	!	!LO:PB:g=original	!	!	!	!	!	!	!	!	!	!	!	!	!
1F	-l(e-	1d	-l(e-	1a	-l(e-	1cc	-l(e-	.	.	.	.	.	.	.	.
1G	-lu-	1d	-lu-	1g	-lu-	1b	-lu-	.	.	.	.	.	.	.	.
!	!	!	!	!	!	!	!	!	!	!	!	!LO:LB:g=original	!	!	!
=13-	=13-	=13-	=13-	=13-	=13-	=13-	=13-	=13-	=13-	=13-	=13-	=13-	=13-	=13-	=13-
1c	-i)a	1c	-i)a	1g	-i)a	1cc	-i)a	1c	No-	1e	No-	1cc	No-	1gg	No-
1r	.	1r	.	1r	.	1r	.	1d	-è(l)	1f	-è(l)	1a	-è(l)	1ff	-è(l)
!	!	!	!	!LO:SIC:v:t=custos a	!	!	!	!	!	!LO:SIC:v:t=custos g	!	!	!	!	!
1r	.	1r	.	1r	.	1r	.	1G	No-	1g	No-	1b	No-	1dd	No-
!	!	!	!	!LO:LB:g=original	!	!	!	!	!	!LO:PB:g=original	!	!	!	!	!
=14-	=14-	=14-	=14-	=14-	=14-	=14-	=14-	=14-	=14-	=14-	=14-	=14-	=14-	=14-	=14-
!	!	!	!	!	!	!LO:SIC:v:t=custos dd	!	!	!	!	!	!	!	!	!
00.r	.	00.r	.	00.r	.	00.r	.	1.c	-è(l)	1.g	-è(l)	1.cc	-è(l)	1.ee	-è(l)
.	.	.	.	.	.	.	.	2d\	No-	2f\	No-	2b\	No-	2dd\	No-
!	!	!	!	!	!	!	!	!LO:TX:t=P:problem:oddech jako rozdzielacz słów:global	!	!	!	!	!	!LO:TX:b:t=P:problem:# below	!
.	.	.	.	.	.	.	.	1A,<	-è(l)	1e	-è(l)	1a	-è(l)	1cc#X	-è(l)
=15-	=15-	=15-	=15-	=15-	=15-	=15-	=15-	=15-	=15-	=15-	=15-	=15-	=15-	=15-	=15-
.	.	.	.	.	.	.	.	1F	Al-	1f	Al-	1a	No-	1dd	No-
.	.	.	.	.	.	.	.	1G	-l(e-	1e	-l(e-	1b-X	-è(l)	1dd	-è(l)
!	!	!	!	!	!	!	!	!LO:SIC:v:t=custos D	!	!	!	!	!	!LO:TX:b:t=P:problem:# below	!
.	.	.	.	.	.	.	.	1A	-lu-	1e	-lu-	1a	No-	1cc#X	No-
!	!	!	!	!	!	!LO:LB:g=original	!	!LO:LB:g=original	!	!	!	!	!	!	!
=16-	=16-	=16-	=16-	=16-	=16-	=16-	=16-	=16-	=16-	=16-	=16-	=16-	=16-	=16-	=16-
*M2/1	*	*M2/1	*	*M2/1	*	*M2/1	*	*M2/1	*	*M2/1	*	*M2/1	*	*M2/1	*
*met(C|)	*	*met(C|)	*	*met(C|)	*	*met(C|)	*	*met(C|)	*	*met(C|)	*	*met(C|)	*	*met(C|)	*
!	!	!LO:TX:b:t=P:problem:# below	!	!	!	!	!	!	!	!	!	!	!	!	!
2r	.	1f#X	Ho-	2r	.	2r	.	1D	-i)a	1d	-i)a	1a	-è(l)	1dd	-è(l)
1d	Ho-	.	.	1a	Ho-	1dd	Ho-	.	.	.	.	.	.	.	.
.	.	2g\	-di-	.	.	.	.	1r	.	1r	.	1r	.	1r	.
2G/	-di-	1g\	-e	2b\	-di-	2dd\	-di-	.	.	.	.	.	.	.	.
=17-	=17-	=17-	=17-	=17-	=17-	=17-	=17-	=17-	=17-	=17-	=17-	=17-	=17-	=17-	=17-
1G	-e	.	.	1b	-e	1dd	-e	2r	.	2r	.	2r	.	2r	.
.	.	1r	.	.	.	.	.	1G	Ho-	1g	Ho-	1bny	ho-	1gg	ho-
1r	.	.	.	1r	.	1r	.	.	.	.	.	.	.	.	.
!	!	!LO:N:vis=2	!	!	!	!	!	!	!	!	!	!	!	!LO:SIC:v:t=custos ee	!
.	.	1r	.	.	.	.	.	2c\	-di-	2g\	-di-	2cc\	-di-	2ee\	-di-
!	!	!	!	!	!	!	!	!	!	!	!	!	!	!LO:LB:g=original	!
=18-	=18-	=18-	=18-	=18-	=18-	=18-	=18-	=18-	=18-	=18-	=18-	=18-	=18-	=18-	=18-
2r	.	.	.	2r	.	2r	.	1c	-e	1g	-e	1cc	-e	1ee	-e
1c	ho-	1e	ho-	1g	ho-	1cc	ho-	.	.	.	.	.	.	.	.
.	.	.	.	.	.	.	.	00r	.	00r	.	00r	.	00r	.
2F/	-di-	2fny\	-di-	2a\	-di-	2cc\	-di-	.	.	.	.	.	.	.	.
=19-	=19-	=19-	=19-	=19-	=19-	=19-	=19-	=19-	=19-	=19-	=19-	=19-	=19-	=19-	=19-
!LO:SIC:v:t=custos A	!	!	!	!	!	!	!	!	!	!	!	!	!	!	!
2F/	-e	2.f\	-e	2a\	-e	2cc\	-e	.	.	.	.	.	.	.	.
.	.	.	.	.	.	.	.	.	.	.	.	.	.	.	.
!LO:LB:g=original	!	!	!	!	!	!	!	!	!	!	!	!	!	!	!
2A/	Sal-	.	.	2a\	Sal-	2cc\	Sal-	.	.	.	.	.	.	.	.
.	.	4e/	Sal-	.	.	.	.	.	.	.	.	.	.	.	.
1B-X	-ua-	1d	-ua-	2f/	-ua-	1dd	-ua-	.	.	.	.	.	.	.	.
.	.	.	.	2g/	.	.	.	.	.	.	.	.	.	.	.
=20-	=20-	=20-	=20-	=20-	=20-	=20-	=20-	=20-	=20-	=20-	=20-	=20-	=20-	=20-	=20-
!	!	!	!	!	!	!LO:TX:b:t=P:problem:# below	!	!	!	!	!	!	!	!	!
2A/	-tor	2e,</	-tor	2a,<\	-tor	2cc#X\	-tor	.	.	.	.	.	.	.	.
2d\	ap-	2f\	ap-	2a\	ap-	2dd\	ap-	.	.	.	.	.	.	.	.
2c\	-pa-	2g\	-pa-	2.cc\	-pa-	2ee\	-pa-	1r	.	1r	.	1r	.	1r	.
2A/	-ru-	2a\	-ru-	.	.	2ff\	-ru-	.	.	.	.	.	.	.	.
.	.	.	.	4cc\	-ru-	.	.	.	.	.	.	.	.	.	.
=21-	=21-	=21-	=21-	=21-	=21-	=21-	=21-	=21-	=21-	=21-	=21-	=21-	=21-	=21-	=21-
1G	-it	1d/	-it	1b	-it	1gg	-it	4r	.	4r	.	4r	.	4r	.
.	.	.	.	.	.	.	.	4G/	Al-	4g\	Al-	4b\	Al-	4ccny\	Al-
.	.	.	.	.	.	.	.	4.G/	-l(e-	4.g\	-l(e-	4.dd\	-l(e-	4.b/	-l(e-
.	.	.	.	.	.	.	.	8A/	-lu-	8g\	-lu-	8cc\	-lu-	8cc\	-lu-
!	!	!	!	!	!	!	!	!	!	!LO:TX:t=P:problem:oddech jako rozdzielacz słów:global	!	!LO:TX:t=P:problem:oddech jako rozdzielacz słów:global	!	!LO:TX:t=P:problem:oddech jako rozdzielacz słów:global	!
4r	.	4r	.	4r	.	4r	.	4B,<\	-i)a	4g,<\	-i)a	4b,<\	-i)a	4dd,<\	-i)a
4C/	Al-	4g\	Al-	4cc\	Al-	4ee\	Al-	4c\	Al-	4e/	Al-	4g/	Al-	4gg\	Al-
4.G/	-l(e-	4.g\	-l(e-	4.b\	-l(e-	4.dd\	-l(e-	4G/	-l(e-	4g\	-l(e-	4b\	-l(e-	4gg\	-l(e-
.	.	.	.	.	.	.	.	4G/	-lu-	4g\	-lu-	4b\	-lu-	4gg\	-lu-
8A/	-lu-	8g\	-lu-	8a\	-lu-	8ccny\	-lu-	.	.	.	.	.	.	.	.
=22-	=22-	=22-	=22-	=22-	=22-	=22-	=22-	=22-	=22-	=22-	=22-	=22-	=22-	=22-	=22-
4Bny\	-i)a	4d,</	-i)a	4g,</	-i)a	4b,</	-i)a	4G,</	-i)a	4g,<\	-i)a	4b,<\	-i)a	4gg,<\	-i)a
!LO:TX:t=P:problem:oddech jako rozdzielacz słów:global, w tym miejscu o nutę za późno	!	!	!	!	!	!	!	!	!	!	!	!LO:SIC:v:t=custos b	!	!	!
4c,<\	Al-	4g\	Al-	4g/	Al-	4gg\	Al-	4C/	Al-	4e/	Al-	4b\	Al-	4ee\	Al-
!	!	!	!	!	!	!	!	!	!	!	!	!LO:LB:g=original	!	!	!
4G/	-l(e-	4.g\	-l(e-	4g/	-l(e-	4gg\	-l(e-	4.G/	-l(e-	4.g\	-(le-	4.b\	-l(e-	4.dd\	-l(e-
4G/	-lu-	.	.	4g/	-lu-	4gg\	-lu-	.	.	.	.	.	.	.	.
.	.	8g\	-lu-	.	.	.	.	8A/	-lu-	8g\	-lu-	8cc\	-lu-	8cc\	-lu-
!	!	!LO:SIC:v:t=custos g	!	!	!	!	!	!	!	!	!	!	!	!	!
4G,</	-i)a	4d/	-i)a	4g/	-i)a	4gg,<\	-i)a	4B,<\	-i)a	4g,<\	-i)a	4dd,<\	-i)a	4b,</	-i)a
!	!	!LO:LB:g=original	!	!LO:SIC:v:t=custos b	!	!	!	!	!	!	!	!	!	!	!
4C/	Al-	4g\	Al-	4cc\	Al-	4ee\	Al-	4c\	Al-	4e/	Al-	4cc\	Al-	4gg\	Al-
!	!	!	!	!LO:LB:g=original	!	!	!	!	!	!	!	!	!	!	!
4.G/	-l(e-	4.g\	-l(e-	4.b\	-l(e-	4.dd\	-l(e-	4G/	-l(e-	4g\	-l(e-	4.b\	-l(e-	4gg\	-l(e-
.	.	.	.	.	.	.	.	4G/	-lu-	4g\	-lu-	.	.	4gg\	-lu-
8A\	.	8g\	-lu-	8a\	-lu-	8cc\	-lu-	.	.	.	.	8cc\	-lu-	.	.
=23-	=23-	=23-	=23-	=23-	=23-	=23-	=23-	=23-	=23-	=23-	=23-	=23-	=23-	=23-	=23-
!	!	!	!	!	!	!	!	!	!	!LO:SIC:v:t=custos g	!	!	!	!	!
4B\	-lu-	4d,</	-i)a	4g,</	-i)a	4b,</	-i)a	4G,</	-i)a	4g\	-i)a	4dd,<\	-i)a	4gg,<\	-i)a
!	!	!	!	!	!	!	!	!	!	!LO:LB:g=original	!	!	!	!	!
4c\	-i)a	4e/	Al-	4cc\	Al-	4gg\	Al-	4C/	Al-	4g\	Al-	4cc\	Al-	4ee\	Al-
8F/L	Al-	4c/	-l(e-	4cc\	-l(e-	4ff\	-l(e-	4.F/	-l(e-	4.a\	-l(e-	4.a\	-l(e-	4.ff\	-l(e-
8F/J	-l(e-	.	.	.	.	.	.	.	.	.	.	.	.	.	.
4F/	-lu-	4c/	-lu-	4cc\	-lu-	4ff\	-lu-	.	.	.	.	.	.	.	.
.	.	.	.	.	.	.	.	8G/	-lu-	8g\	-lu-	8b\	-lu-	8ff\	-lu-
!	!	!	!	!	!	!LO:SIC:v:t=custos dd	!	!	!	!	!	!	!	!	!
2F/	-i)a	2c/	-i)a	2cc\	-i)a	2ff\	-i)a	4A,</	-i)a	4f,<\	-i)a	4cc,<\	-i)a	4ee,<\	-i)a
.	.	.	.	.	.	.	.	4F/	Al-	4a\	Al-	4cc\	Al-	2ff\	Al-
!	!	!	!	!	!	!LO:LB:g=original	!	!	!	!	!	!	!	!	!
2r	.	2r	.	2r	.	1r	.	2G/	-l(e-	4.g\	-l(e-	2b\	-l(e-	.	.
.	.	.	.	.	.	.	.	.	.	.	.	.	.	8ee\L	.
.	.	.	.	.	.	.	.	.	.	8f\	.	.	.	8dd\J	.
=24-	=24-	=24-	=24-	=24-	=24-	=24-	=24-	=24-	=24-	=24-	=24-	=24-	=24-	=24-	=24-
!	!	!	!	!	!	!	!	!	!	!	!	!	!	!LO:TX:a:t=P:problem:# above	!
1r	.	1r	.	1r	.	.	.	1A	-lu-	1e	-lu-	1a	-lu-	4cc#X\	-l(e-
.	.	.	.	.	.	.	.	.	.	.	.	.	.	2dd\	.
!	!	!	!	!	!	!LO:N:vis=2	!	!	!	!	!	!	!	!	!
.	.	.	.	.	.	1r	.	.	.	.	.	.	.	.	.
!	!	!	!	!	!	!	!	!	!	!	!	!	!	!LO:TX:b:t=P:problem:# below	!
.	.	.	.	.	.	.	.	.	.	.	.	.	.	4cc#X\	-lu-
!	!	!	!	!	!	!	!	!	!	!LO:TX:b:t=P:problem:# below	!	!	!	!	!
2r	.	2r	.	2r	.	.	.	1d,<	-i)a	1f#X	-i)a	1a	-ta	1dd,<	-i)a
!	!	!LO:TX:b:t=P:problem:# below	!	!	!	!	!	!	!	!	!	!	!	!	!
1d\	Ho-	1f#X\	Ho-	1a\	ho-	1dd\	Ho-	.	.	.	.	.	.	.	.
!	!	!	!	!	!	!	!	!	!	!	!	!	!	!LO:LB:g=original	!
=25-	=25-	=25-	=25-	=25-	=25-	=25-	=25-	=25-	=25-	=25-	=25-	=25-	=25-	=25-	=25-
.	.	.	.	.	.	.	.	1r	.	1r	.	1r	.	1r	.
2G/	-di-	2g\	-di-	2b\	-di-	2dd\	-di-	.	.	.	.	.	.	.	.
1c	-e	1g	-e	1cc	-e	1ee	-e	2r	.	2r	.	2r	.	2r	.
.	.	.	.	.	.	.	.	1c\	Ho-	1g\	Ho-	1cc\	ho-	1gg\	ho-
=26-	=26-	=26-	=26-	=26-	=26-	=26-	=26-	=26-	=26-	=26-	=26-	=26-	=26-	=26-	=26-
1r	.	1r	.	1r	.	1r	.	.	.	.	.	.	.	.	.
.	.	.	.	.	.	.	.	2F/	-di-	2a\	-di-	2cc\	-di-	4ff\	-di-
.	.	.	.	.	.	.	.	.	.	.	.	.	.	4ee\	.
!	!	!	!	!	!	!	!	!LO:SIC:v:t=custos d	!	!	!	!	!	!	!
2r	.	2r	.	2r	.	2r	.	1G	-e	1g	-e	1b	-e	1dd	-e
1G/	ho-	1g\	ho-	1b\	ho-	1dd\	Ho-	.	.	.	.	.	.	.	.
!	!	!	!	!	!	!	!	!LO:LB:g=original	!	!	!	!	!	!	!
=27-	=27-	=27-	=27-	=27-	=27-	=27-	=27-	=27-	=27-	=27-	=27-	=27-	=27-	=27-	=27-
.	.	.	.	.	.	.	.	1r	.	1r	.	1r	.	1r	.
!	!	!	!	!	!	!LO:TX:b:t=P:problem:# below	!	!	!	!	!	!	!	!	!
2E/	-di-	2g\	-di-	2g/	-di-	2cc#X\	-di-	.	.	.	.	.	.	.	.
!	!	!LO:TX:b:t=P:problem:# below	!	!	!	!	!	!	!	!	!	!	!	!	!
1D	-e	1f#X	-e	1a	-e	1dd	-e	2r	.	2r	.	2r	.	2r	.
.	.	.	.	.	.	.	.	2d\	in	2.a\	in	1dd\	in	2ff\	in
=28-	=28-	=28-	=28-	=28-	=28-	=28-	=28-	=28-	=28-	=28-	=28-	=28-	=28-	=28-	=28-
00r	.	00r	.	00r	.	00r	.	2.d\	ter-	.	.	.	.	2.ff\	ter-
.	.	.	.	.	.	.	.	.	.	4a\	ter-	.	.	.	.
!	!	!	!	!	!	!	!	!	!	!LO:TX:b:t=P:problem:# below	!	!	!	!	!
.	.	.	.	.	.	.	.	.	.	4g#X\	.	2a\	.	.	.
.	.	.	.	.	.	.	.	4c\	.	2a\	.	.	.	4ee\	.
.	.	.	.	.	.	.	.	1B-X	.	.	.	1dd	ter-	1dd	.
.	.	.	.	.	.	.	.	.	.	8g#\L	.	.	.	.	.
.	.	.	.	.	.	.	.	.	.	8fny\J	.	.	.	.	.
!	!	!	!	!	!	!	!	!	!	!LO:TX:b:t=P:problem:# below	!	!	!	!	!
.	.	.	.	.	.	.	.	.	.	2g#X\	.	.	.	.	.
=29-	=29-	=29-	=29-	=29-	=29-	=29-	=29-	=29-	=29-	=29-	=29-	=29-	=29-	=29-	=29-
!	!	!	!	!	!	!	!	!	!	!	!	!LO:TX:b:t=P:problem:# below	!	!	!
.	.	.	.	.	.	.	.	1A,<	-ra	1a	-ra	1cc#X	-ra	1ee,<	-ra
.	.	.	.	.	.	.	.	4d\	ca-	4a\	ca-	4a\	ca-	4ff\	ca-
.	.	.	.	.	.	.	.	4G/	-nunt	4gny\	-nunt	4b\	-(nunt)	4gg\	-nunt
.	.	.	.	.	.	.	.	4.c\	An-	4.g\	An-	4.ccny\	An-	4.ee\	An-
!	!	!	!	!	!	!	!	!	!	!	!	!LO:SIC:v:t=custos cc	!	!	!
.	.	.	.	.	.	.	.	8c\	-ge-	8g\	-ge-	8cc\	-ge-	8ee\	-ge-
!	!	!	!	!	!	!	!	!	!	!	!	!LO:LB:g=original	!	!	!
=30-	=30-	=30-	=30-	=30-	=30-	=30-	=30-	=30-	=30-	=30-	=30-	=30-	=30-	=30-	=30-
00r	.	00r	.	00r	.	00r	.	4c\	-li	4g\	-li	4cc,<\	-li	4ee\	-li
.	.	.	.	.	.	.	.	4e\	lae-	4e/	lae-	4g/	lae-	4gg\	lae-
!	!	!	!	!	!	!	!	!	!	!LO:SIC:v:t=custos g	!	!	!	!	!
.	.	.	.	.	.	.	.	2d\	-tan-	2f\	-ta(n)-	4a\	-tan-	2ff\	-tan-
.	.	.	.	.	.	.	.	.	.	.	.	4b\	.	.	.
!	!	!	!	!	!	!	!	!	!	!LO:LB:g=original	!	!	!	!	!
.	.	.	.	.	.	.	.	4c\	-tur	4g\	-tur	4cc,<\	-tur	4ee,<\	-tur
.	.	.	.	.	.	.	.	4e\	lae-	4e/	lae-	4g/	lae-	4gg\	lae-
.	.	.	.	.	.	.	.	2d\	-tan-	2f\	-tan-	4a\	-tan-	2ff\	-tan-
.	.	.	.	.	.	.	.	.	.	.	.	4b\	.	.	.
=31-	=31-	=31-	=31-	=31-	=31-	=31-	=31-	=31-	=31-	=31-	=31-	=31-	=31-	=31-	=31-
.	.	.	.	.	.	.	.	4c\	-tur	2g\	-tur	4cc,<\	-tur	4ee\	-tur
*	*	*	*	*	*	*	*	*	*ij	*	*	*	*	*	*
.	.	.	.	.	.	.	.	4G/	lae-	.	.	4b\	lae-	4gg\	lae-
.	.	.	.	.	.	.	.	2d\	-tan-	4r	.	4.a\	-tan-	2ff\	-tan-
.	.	.	.	.	.	.	.	.	.	4f\	lae-	.	.	.	.
.	.	.	.	.	.	.	.	.	.	.	.	8b\	.	.	.
.	.	.	.	.	.	.	.	4c\	-tur	4g\	-tan-	4cc\	-tur	4ee\	-tur
*	*	*	*	*	*	*	*	*	*Xij	*	*	*	*	*	*
.	.	.	.	.	.	.	.	4e\	Ar-	8g\L	-tur	8b\L	Ar-	4gg\	Ar-
.	.	.	.	.	.	.	.	.	.	8g\J	Ar-	8cc\J	.	.	.
!	!	!	!	!	!	!	!	!	!	!	!	!	!	!LO:TX:b:t=P:problem:# below	!
.	.	.	.	.	.	.	.	4.d\	-chan-	4.a\	-han-	4.dd\	-chan-	4.ff#\	-chan-
.	.	.	.	.	.	.	.	8d\	-(g)e-	8a\	-ge-	8dd\	-ge-	8ff#\	-ge-
=32-	=32-	=32-	=32-	=32-	=32-	=32-	=32-	=32-	=32-	=32-	=32-	=32-	=32-	=32-	=32-
!	!	!	!	!	!	!	!	!	!	!	!	!	!	!LO:SIC:v:t=custos gg	!
4r	.	4r	.	4r	.	4r	.	2G/	-li	2b\	-li	2dd\	-li	2gg\	-li
4G/	lae-	4g\	lae-	4b\	lae-	4dd\	lae-	.	.	.	.	.	.	.	.
!	!	!	!	!	!	!	!	!	!	!	!	!	!	!LO:LB:g=original	!
2C/	-tan-	2g\	-tan-	2cc\	-tan-	2ee\	-tan-	2r	.	2r	.	2r	.	2r	.
4G,</	-tur	4g,<\	-tur	4b,<\	-tur	4dd,<\	-tur	4r	.	4r	.	4r	.	4r	.
*	*	*	*ij	*	*ij	*	*	*	*	*	*	*	*	*	*
!LO:SIC:v:t=custos c	!	!	!	!	!	!	!	!	!	!	!	!	!	!	!
4G/	lae-	4d/	lae-	4dd\	lae-	4gg\	lae-	4G/	lae-	4g\	lae-	4b\	lae-	4gg\	lae-
!LO:LB:g=original	!	!	!	!	!	!	!	!	!	!	!	!	!	!	!
2c\	-tan-	2e/	-tan-	2cc\	-tan-	2gg\	-tan-	2C/	-tan-	2g\	-tan-	2cc\	-tan-	2ee\	-tan-
=33-	=33-	=33-	=33-	=33-	=33-	=33-	=33-	=33-	=33-	=33-	=33-	=33-	=33-	=33-	=33-
4G/	-tur	4g,<\	-tur	4dd,<\	-tur	4gg,<\	-t(ur)	4G,</	-tur	4g\	-tur	4b,<\	-tur	4dd,<\	-tur
*	*ij	*	*Xij	*	*	*	*ij	*	*ij	*	*	*	*	*	*
4G/	lae-	4g\	lae-	4dd\	lae-	4dd\	lae-	4G/	lae-	4g\	lae-	4dd\	lae-	4gg\	lae-
2C/	-tan-	2g\	-tan-	2cc\	-tan-	2ee\	-tan-	2c\	-tan-	2e/	-ta-	2cc\	-tan-	2gg\	-tan-
4G,</	-tur	4g\	-tur	4dd,<\	-tur	4dd,<\	-t(ur)	4G,</	tur	4g\	-t(ur)	4b\	-tur	4gg,<\	-tur
*	*Xij	*	*	*	*Xij	*	*Xij	*	*Xij	*	*	*	*	*	*
!	!	!LO:SIC:v:t=custos e	!	!	!	!	!	!	!	!	!	!	!	!	!
4G/	lae-	4d/	lae-	4b\	lae-	4gg\	lae-	4G/	lae-	4g\	lae-	4b\	lae-	4gg\	lae-
!	!	!LO:LB:g=original	!	!	!	!	!	!	!	!	!	!	!	!	!
2c\	-tan-	2e/	-tan-	2cc\	-tan-	2gg\	-tan-	2C/	-tan-	2g\	-tan-	2cc\	-tan-	2ee\	-tan-
=34-	=34-	=34-	=34-	=34-	=34-	=34-	=34-	=34-	=34-	=34-	=34-	=34-	=34-	=34-	=34-
2G/	-tur	2g,<\	-tur	2b\	-tur	2gg\	-t(ur)	2G/	-tur	2g\	-tur	2b\	-tur	2dd\	-tur
!	!	!	!	!LO:SIC:v:t=custos cc	!	!	!	!	!	!	!	!	!	!	!
2D/	Ar-	2a\	Ar-	2dd\	Ar-	4.ff\	Ar-	2r	.	2r	.	2r	.	1r	.
.	.	.	.	.	.	8ee\	.	.	.	.	.	.	.	.	.
!	!	!	!	!LO:LB:g=original	!	!	!	!	!	!	!	!LO:SIC:v:t=custos b	!	!	!
4.F/	-chan-	2.a\	-chan-	2cc\	-chan-	2dd\	-chan-	1r	.	1r	.	1r	.	.	.
8G/	.	.	.	.	.	.	.	.	.	.	.	.	.	.	.
!	!	!	!	!	!	!LO:TX:b:t=P:problem:# below	!	!	!	!	!	!	!	!	!
2A/	-ge-	.	.	2b\	-ge-	2cc#X\	-ge-	.	.	.	.	.	.	2r	.
.	.	4a\	-ge-	.	.	.	.	.	.	.	.	.	.	.	.
!	!	!	!	!	!	!	!	!	!	!	!	!LO:LB:g=original	!	!	!
=35-	=35-	=35-	=35-	=35-	=35-	=35-	=35-	=35-	=35-	=35-	=35-	=35-	=35-	=35-	=35-
*M3/2	*	*M3/2	*	*M3/2	*	*M3/2	*	*M3/2	*	*M3/2	*	*M3/2	*	*M3/2	*
!	!	!LO:TX:t=P:problem:# przed metrum	!	!	!	!	!	!LO:SIC:v:t=custos G	!	!	!	!	!	!	!
0.D	-li	0.f#X	-li	0.a	-li	0.dd	-li	00.r	.	00.r	.	00.r	.	00.r	.
=36-	=36-	=36-	=36-	=36-	=36-	=36-	=36-	=36-	=36-	=36-	=36-	=36-	=36-	=36-	=36-
1G	No-	1g	No-	1b	No-	1dd	No-	.	.	.	.	.	.	.	.
!	!	!	!	!	!	!LO:SIC:v:t=custos ee	!	!	!	!	!	!	!	!	!
1B	-è(l)	1g	-è(l)	1dd	-è(l)	1dd	-è(l)	.	.	.	.	.	.	.	.
.	.	.	.	.	.	.	.	.	.	.	.	.	.	.	.
!	!	!	!	!	!	!LO:LB:g=original	!	!	!	!	!	!	!	!	!
1c	No-	1g	No-	1cc	No-	1ee	No-	.	.	.	.	.	.	.	.
.	.	.	.	.	.	.	.	.	.	.	.	.	.	.	.
!	!	!	!	!	!	!	!	!LO:LB:g=original	!	!	!	!	!	!	!
=37-	=37-	=37-	=37-	=37-	=37-	=37-	=37-	=37-	=37-	=37-	=37-	=37-	=37-	=37-	=37-
0.G	-è(l)	0.g	-è(l)	0.dd,<	-è(l)	0.dd	-è(l)	1G	No-	1g	No-	1b	No-	1dd	No-
.	.	.	.	.	.	.	.	1Bny\	-è(l)	1g\	-è(l)	1dd\	-è(l)	1dd\	-è(l)
.	.	.	.	.	.	.	.	.	.	.	.	.	.	.	.
.	.	.	.	.	.	.	.	1c	No-	1g	No-	1cc	No-	1ee	No-
=38-	=38-	=38-	=38-	=38-	=38-	=38-	=38-	=38-	=38-	=38-	=38-	=38-	=38-	=38-	=38-
1G	No-	1g	No-	1b	No-	1dd	No-	1G	-è(l)	1g	-è(l)	1dd	-è(l)	1dd	-è(l)
1E	-è(l)	1g	-è(l)	1b	-è(l)	1ee	-è(l)	1r	.	1r	.	1r	.	1r	.
!	!	!	!	!	!	!LO:TX:b:t=P:problem:# below	!	!	!	!LO:SIC:v:t=custos g	!	!	!	!	!
1D	No-	1a	No-	1dd	No-	1ff#X	No-	1r	.	1r	.	1r	.	1r	.
!	!	!	!	!	!	!	!	!	!	!LO:LB:g=original	!	!	!	!	!
=39-	=39-	=39-	=39-	=39-	=39-	=39-	=39-	=39-	=39-	=39-	=39-	=39-	=39-	=39-	=39-
1G	-è(l)	1g	-è(l)	1dd	-è(l)	1gg	-è(l)	1G	No-	1g	No-	1b	No-	1dd	No-
1r	.	1r	.	1r	.	1r	.	1E/	-è(l)	1g\	-è(l)	1b\	-è(l)	1ee\	-è(l)
.	.	.	.	.	.	.	.	.	.	.	.	.	.	.	.
!	!	!	!	!	!	!	!	!	!	!	!	!	!	!LO:TX:b:t=P:problem:# below	!
1r	.	1r	.	1r	.	1r	.	1D	No-	1a	No-	1dd	No-	1ff#X	No-
=40-	=40-	=40-	=40-	=40-	=40-	=40-	=40-	=40-	=40-	=40-	=40-	=40-	=40-	=40-	=40-
1G	No-	1g	No-	1b	No-	1dd	No-	0G	-è(l)	0b	-è(l)	0dd	-è(l)	0gg	-è(l)
1B	-è(l)	1g	-è(l)	1dd	-è(l)	1dd	-è(l)	.	.	.	.	.	.	.	.
.	.	.	.	.	.	.	.	.	.	.	.	.	.	.	.
1c	No-	1g	No-	1cc	No-	1ee	No-	1r	.	1r	.	1r	.	1r	.
=41-	=41-	=41-	=41-	=41-	=41-	=41-	=41-	=41-	=41-	=41-	=41-	=41-	=41-	=41-	=41-
1.G	-è(l)	0.g,<	-è(l)	0.dd,<	-è(l)	0.dd	-è(l)	00.r	.	00.r	.	00.r	.	00.r	.
2A/	No-	.	.	.	.	.	.	.	.	.	.	.	.	.	.
1B	-è(l)	.	.	.	.	.	.	.	.	.	.	.	.	.	.
=42-	=42-	=42-	=42-	=42-	=42-	=42-	=42-	=42-	=42-	=42-	=42-	=42-	=42-	=42-	=42-
1c	Al-	1g	Al-	1cc	Al-	1ee	No-	.	.	.	.	.	.	.	.
1F	-l(e-	1a	-l(e-	1cc	-l(e-	1ffny	-è(l)	.	.	.	.	.	.	.	.
!LO:SIC:v:t=custos C	!	!	!	!	!	!	!	!	!	!	!	!	!	!	!
1G	-lu-	1g	-lu-	1b	-lu-	1dd	No-	.	.	.	.	.	.	.	.
!LO:LB:g=original	!	!	!	!	!	!	!	!	!	!	!	!	!	!	!
=43-	=43-	=43-	=43-	=43-	=43-	=43-	=43-	=43-	=43-	=43-	=43-	=43-	=43-	=43-	=43-
1C	-i)a	1g	-i)a	1cc	-i)a	1ee	-è(l)	1c	No-	1g	No-	1cc	No-	1ee	No-
1r	.	1r	.	1r	.	1r	.	1A\	-è(l)	1a\	-è(l)	1cc\	-è(l)	1ee\	-è(l)
.	.	.	.	.	.	.	.	.	.	.	.	.	.	.	.
1r	.	1r	.	1r	.	1r	.	1G	No-	1b	No-	1dd	No-	1gg	No-
!	!	!LO:LB:g=original	!	!	!	!	!	!	!	!	!	!	!	!	!
=44-	=44-	=44-	=44-	=44-	=44-	=44-	=44-	=44-	=44-	=44-	=44-	=44-	=44-	=44-	=44-
00.r	.	00.r	.	00.r	.	00.r	.	1.c	-è(l)	1.cc	-è(l)	1.ee	-è(l)	1.gg	-è(l)
.	.	.	.	.	.	.	.	2G/	No-	2b\	No-	2dd\	No-	2gg\	No-
!	!	!	!	!	!	!	!	!	!	!	!	!	!	!LO:SIC:v:t=custos gg	!
.	.	.	.	.	.	.	.	1A,<	-è(l)	1a	-è(l)	1cc	-è(l)	1ee	-è(l)
!	!	!	!	!	!	!	!	!	!	!	!	!	!	!LO:PB:g=original	!
=45-	=45-	=45-	=45-	=45-	=45-	=45-	=45-	=45-	=45-	=45-	=45-	=45-	=45-	=45-	=45-
.	.	.	.	.	.	.	.	1E	Al-	1g	Al-	1cc	Al-	1gg	Al-
.	.	.	.	.	.	.	.	1F/	-l(e-	1a\	-l(e-	1cc\	-(le-	1ffny\	-(le-
.	.	.	.	.	.	.	.	.	.	.	.	.	.	.	.
.	.	.	.	.	.	.	.	1G	-lu-	1g	-lu-	1b	-lu-	1dd	-lu-
=46-	=46-	=46-	=46-	=46-	=46-	=46-	=46-	=46-	=46-	=46-	=46-	=46-	=46-	=46-	=46-
0.r	.	0.r	.	0.r	.	0.r	.	0.C	-i)a	0.g	-i)a	0.cc	-i)a	0.ee	-i)a
.	.	.	.	.	.	.	.	.	.	.	.	.	.	.	.
=47-	=47-	=47-	=47-	=47-	=47-	=47-	=47-	=47-	=47-	=47-	=47-	=47-	=47-	=47-	=47-
*M2/1	*	*M2/1	*	*M2/1	*	*M2/1	*	*M2/1	*	*M2/1	*	*M2/1	*	*M2/1	*
*met(C|)	*	*met(C|)	*	*met(C|)	*	*met(C|)	*	*met(C|)	*	*met(C|)	*	*met(C|)	*	*met(C|)	*
1.c	Ho-	1.g	Ho-	1.cc	ho-	1.ee	Ho-	0r	.	0r	.	0r	.	0r	.
.	.	.	.	.	.	.	.	.	.	.	.	.	.	.	.
2d\	-di-	2fny\	-di-	2a\	-di-	2ff\	-di-	.	.	.	.	.	.	.	.
=48-	=48-	=48-	=48-	=48-	=48-	=48-	=48-	=48-	=48-	=48-	=48-	=48-	=48-	=48-	=48-
!	!	!	!	!LO:SIC:v:t=custos b	!	!	!	!	!	!	!	!	!	!	!
1A	-e	1e	-e	1a	-e	1ee	-e	2r	.	2r	.	2r	.	2r	.
!	!	!	!	!	!	!	!	!	!	!	!	!LO:TX:b:t=P:problem:# below	!	!	!
.	.	.	.	.	.	.	.	1A\	Ho-	1a\	Ho-	1cc#\	ho-	1ee\	Ho-
!	!	!	!	!LO:LB:g=original	!	!	!	!	!	!	!	!	!	!	!
1r	.	1r	.	1r	.	1r	.	.	.	.	.	.	.	.	.
.	.	.	.	.	.	.	.	2D/	-di-	2a\	-di-	2dd\	-di-	2ff\	-di-
=49-	=49-	=49-	=49-	=49-	=49-	=49-	=49-	=49-	=49-	=49-	=49-	=49-	=49-	=49-	=49-
!	!	!	!	!	!	!	!	!	!	!LO:TX:b:t=P:problem:# below	!	!LO:SIC:v:t=custos b	!	!	!
2r	.	2r	.	2r	.	2r	.	1E	-e	1g#X	-e	1b	-e	1ee	-e
1E/	ho-	1e\	ho-	1b\	ho-	1b\	ho-	.	.	.	.	.	.	.	.
!	!	!	!	!	!	!	!	!	!	!	!	!LO:PB:g=original	!	!	!
.	.	.	.	.	.	.	.	1r	.	1r	.	1r	.	1r	.
!	!	!	!	!LO:TX:b:t=P:problem:# below	!	!LO:TX:b:t=P:problem:# below	!	!	!	!	!	!	!	!	!
2A/	-di-	2e/	-di-	2cc#X\	-di-	2cc#X\	-di-	.	.	.	.	.	.	.	.
=50-	=50-	=50-	=50-	=50-	=50-	=50-	=50-	=50-	=50-	=50-	=50-	=50-	=50-	=50-	=50-
2G/	-e	2g\	-e	2dd\	-e	2dd\	-e	4r	.	4r	.	4r	.	4r	.
.	.	.	.	.	.	.	.	4G/	e-	4gny\	e-	4b\	e-	4dd\	e-
2r	.	2r	.	2r	.	2r	.	2c\	-xul-	2g\	-xul-	2ccny\	-xul-	2ee\	-xul-
0r	.	0r	.	0r	.	0r	.	4A/	-tant	4a\	-tant	4cc,<\	-tant	4ccny,<\	-tant
!	!	!	!	!	!	!	!	!	!	!LO:SIC:v:t=custos a	!	!	!	!	!
.	.	.	.	.	.	.	.	4A/	e-	4a\	e-	4cc\	ex-	4ee\	ex-
!	!	!	!	!	!	!	!	!	!	!LO:LB:g=original	!	!	!	!	!
.	.	.	.	.	.	.	.	2d\	-xul-	2a\	-xul-	2dd\	-ul-	2ff\	-ul-
=51-	=51-	=51-	=51-	=51-	=51-	=51-	=51-	=51-	=51-	=51-	=51-	=51-	=51-	=51-	=51-
.	.	.	.	.	.	.	.	4G,</	-tant	4g\	-tant	4dd,<\	-tant	4gg,<\	-tant
!	!	!	!	!	!	!	!	!LO:SIC:v:t=custos c	!	!	!	!	!	!	!
.	.	.	.	.	.	.	.	4G/	e-	4g\	e-	4dd\	ex-	4dd\	ex-
!	!	!	!	!	!	!	!	!LO:LB:g=original	!	!	!	!	!	!	!
.	.	.	.	.	.	.	.	4c\	-xul-	4g\	-xul-	4b\	-ul-	4ee\	-ul-
.	.	.	.	.	.	.	.	4e\	-t(an)t	4g\	-tant	4cc\	-tant	4gg\	-tant
!	!	!	!	!	!	!LO:N:vis=2	!	!	!	!	!	!	!	!LO:TX:b:t=P:problem:# below	!
2r	.	2r	.	2r	.	1r	.	2d\	ius-	2a\	ius-	2dd\	ius-	2ff#X\	ius-
4r	.	4r	.	4r	.	.	.	2G/	-ti	2g\	-ti	2dd\	-ti	2gg\	-ti
4G/	e-	4g\	e-	4b\	e-	.	.	.	.	.	.	.	.	.	.
=52-	=52-	=52-	=52-	=52-	=52-	=52-	=52-	=52-	=52-	=52-	=52-	=52-	=52-	=52-	=52-
2c\	-xul-	2g\	-xul-	2ccny\	-xul-	4r	.	4r	.	4r	.	4r	.	4r	.
.	.	.	.	.	.	8dd\L	e-	4C/	e-	4g\	e-	4cc\	ex-	4ffny\	ex-
!	!	!	!	!	!	!LO:SIC:v:t=custos cc	!	!	!	!	!	!	!	!	!
.	.	.	.	.	.	8ccny\J	-xul-	.	.	.	.	.	.	.	.
!	!	!	!	!	!	!LO:LB:g=original	!	!	!	!	!	!	!	!	!
4A,</	-tant	4a,<\	-tant	4cc,<\	-tant	4cc\	-tant	2F/	-xul-	2a\	-xul-	2cc\	-ul-	2ff\	-ul-
*	*ij	*	*ij	*	*ij	*	*	*	*	*	*	*	*	*	*
4A/	e-	4a\	e-	4a\	e-	4ee\	e-	.	.	.	.	.	.	.	.
!	!	!	!	!	!	!LO:TX:b:t=P:problem:# below	!	!	!	!	!	!	!	!LO:SIC:v:t=custos ff	!
2d\	-xul-	2a\	-xul-	2a\	-xul-	2ff#X\	-xul-	4D/	-tant	4a\	-tant	4dd,<\	-tant	4ff\	-tat
!	!	!	!	!	!	!	!	!	!	!	!	!	!	!LO:LB:g=original	!
.	.	.	.	.	.	.	.	4D/	e-	4a\	e-	4dd\	ex-	4ff\	ex-
4G,</	-tant	4g,<\	-tant	4b\	-tant	4gg\	-tant	2G/	-xul-	2g\	-xul-	2b\	-ul-	2dd\	-ul-
*	*Xij	*	*Xij	*	*Xij	*	*	*	*	*	*	*	*	*	*
4G/	e-	4g\	e-	4dd\	e-	4dd\	e-	.	.	.	.	.	.	.	.
=53-	=53-	=53-	=53-	=53-	=53-	=53-	=53-	=53-	=53-	=53-	=53-	=53-	=53-	=53-	=53-
4c\	-xul-	4g\	-xul-	4cc\	-xul-	4ee\	-xul-	2C/	-tant	2g\	-tant	2cc\	-tant	2ee\	-tant
4e\	-tant	4g\	-tant	8b\L	-tant	4gg\	-tant	.	.	.	.	.	.	.	.
.	.	.	.	8cc\J	.	.	.	.	.	.	.	.	.	.	.
!	!	!	!	!	!	!LO:TX:b:t=P:problem:# below	!	!	!	!	!	!	!	!	!
2d\	ius-	2a\	ius-	2dd\	ius-	2ff#X\	ius-	2r	.	2rr	.	2r	.	1r	.
1G,<	-ti	1g,<	-ti	1dd,<	-ti	1gg,<	-ti	1r	.	1r	.	1r	.	.	.
.	.	.	.	.	.	.	.	.	.	.	.	.	.	2r	.
=54-	=54-	=54-	=54-	=54-	=54-	=54-	=54-	=54-	=54-	=54-	=54-	=54-	=54-	=54-	=54-
4c\	di-	2g\	di-	1.cc	di-	1ee	di-	1C	di-	1g	di-	1cc	di-	2.gg\	di-
4B\	.	.	.	.	.	.	.	.	.	.	.	.	.	.	.
4A/	.	2c/	-cen-	.	.	.	.	.	.	.	.	.	.	.	.
4G/	.	.	.	.	.	.	.	.	.	.	.	.	.	8ff\L	.
.	.	.	.	.	.	.	.	.	.	.	.	.	.	8ee\J	.
1F	-cen-	1.c	-tis	.	.	2.cc\	-cen-	4F/	-cen-	1a	-cen-	1cc	-cen-	2.ff\	-cen-
.	.	.	.	.	.	.	.	4G/	.	.	.	.	.	.	.
.	.	.	.	2a\	-cen-	.	.	4A/	.	.	.	.	.	.	.
.	.	.	.	.	.	4dd\	.	4B\	.	.	.	.	.	8ee\L	.
.	.	.	.	.	.	.	.	.	.	.	.	.	.	8dd\J	.
=55-	=55-	=55-	=55-	=55-	=55-	=55-	=55-	=55-	=55-	=55-	=55-	=55-	=55-	=55-	=55-
0C	-tis	.	.	1cc	-tis	1ee,<	-tis	1c,<	-tis	1g	-tis	1cc	-tis	1ee,<	-tis
.	.	2g\	di-	.	.	.	.	.	.	.	.	.	.	.	.
.	.	0c	-cen-	2r	.	1cc	di-	4c\	di-	2r	.	2r	.	4ee\	di-
.	.	.	.	.	.	.	.	4B\	.	.	.	.	.	4ff\	.
!	!	!	!	!	!	!	!	!	!	!	!	!LO:SIC:v:t=custos cc	!	!	!
.	.	.	.	1a\	di-	.	.	4A/	.	2g\	di-	2cc\	di-	4gg\	.
.	.	.	.	.	.	.	.	4G/	.	.	.	.	.	4ee\	.
!	!	!	!	!	!	!	!	!	!	!	!	!LO:LB:g=original	!	!	!
=56-	=56-	=56-	=56-	=56-	=56-	=56-	=56-	=56-	=56-	=56-	=56-	=56-	=56-	=56-	=56-
2F/	di-	.	.	.	.	2.cc\	-cen-	1F	-cen-	1a	-cen-	1cc	-cen-	4ff\	.
.	.	.	.	.	.	.	.	.	.	.	.	.	.	4gg\	.
2F/	-cen-	.	.	2cc\	-cen-	.	.	.	.	.	.	.	.	4aa\	-cen-
.	.	.	.	.	.	4dd\	.	.	.	.	.	.	.	4ff\	.
1c	-tis	1c	-tis	1cc	-tis	1ee	-tis	1C,<	-tis	1g	.	1cc,	-tis	1gg,<	-tis
=57-	=57-	=57-	=57-	=57-	=57-	=57-	=57-	=57-	=57-	=57-	=57-	=57-	=57-	=57-	=57-
*	*	*	*	*	*	*	*	*	*	*	*	*	*	*lig	*
00r	.	00r	.	00r	.	00r	.	2.c\	Glo-	1.g	-tis	2.ee\	Glo-	1cc	Glo-
.	.	.	.	.	.	.	.	8B\L	.	.	.	8dd\L	.	.	.
.	.	.	.	.	.	.	.	8A\J	.	.	.	8cc\J	.	.	.
.	.	.	.	.	.	.	.	2.G/	.	.	.	2.b\	.	1dd	.
.	.	.	.	.	.	.	.	.	.	4d/	Glo-	.	.	.	.
.	.	.	.	.	.	.	.	8F/L	.	4e/	.	8a\L	.	.	.
.	.	.	.	.	.	.	.	8E/J	.	.	.	8g\J	.	.	.
=58-	=58-	=58-	=58-	=58-	=58-	=58-	=58-	=58-	=58-	=58-	=58-	=58-	=58-	=58-	=58-
*	*	*	*	*	*	*	*	*	*	*	*	*	*	*col	*
.	.	.	.	.	.	.	.	4D/	.	4f\	-ri-	2.a\	.	1.ee	.
.	.	.	.	.	.	.	.	4E/	.	4g\	.	.	.	.	.
.	.	.	.	.	.	.	.	4F/	.	2.a\	.	.	.	.	.
.	.	.	.	.	.	.	.	4G/	.	.	.	4b\	.	.	.
*	*	*	*	*	*	*	*	*	*	*	*	*	*	*Xlig	*
!	!	!	!	!	!	!	!	!	!	!	!	!	!	!LO:TX:a:t=2	!
.	.	.	.	.	.	.	.	2A/	.	.	.	2cc\	.	.	.
!	!	!	!	!	!	!	!	!	!	!LO:SIC:v:t=custos f	!	!	!	!	!
.	.	.	.	.	.	.	.	.	.	4g\	.	.	.	.	.
!	!	!	!	!	!	!	!	!	!	!LO:LB:g=original	!	!	!	!	!
.	.	.	.	.	.	.	.	2B-X\	-ri-	4f\	.	2dd\	.	2ff	-ri-
.	.	.	.	.	.	.	.	.	.	4g\	.	.	.	.	.
*	*	*	*	*	*	*	*	*	*	*	*	*	*	*Xcol	*
=59-	=59-	=59-	=59-	=59-	=59-	=59-	=59-	=59-	=59-	=59-	=59-	=59-	=59-	=59-	=59-
00r	.	00r	.	00r	.	00r	.	1F,<	-a	1a	.	4a\	-ri-	1ff	-a
.	.	.	.	.	.	.	.	.	.	.	.	4b\	.	.	.
.	.	.	.	.	.	.	.	.	.	.	.	1cc,<\	-a	.	.
.	.	.	.	.	.	.	.	2c\	in	2g\	.	.	.	2ee\	in
.	.	.	.	.	.	.	.	2A/	ex-	2a,<\	-a	2cc\	in	2ff\	ex-
=60-	=60-	=60-	=60-	=60-	=60-	=60-	=60-	=60-	=60-	=60-	=60-	=60-	=60-	=60-	=60-
.	.	.	.	.	.	.	.	2G/	-cel-	2b\	in	2dd\	ex-	2gg\	-cel-
!	!	!	!	!	!	!	!	!	!	!	!	!	!	!LO:SIC:v:t=custos gg	!
.	.	.	.	.	.	.	.	2c\	-sis	2g\	ex-	2cc\	-cel-	2ee\	-sis
!	!	!	!	!	!	!	!	!	!	!	!	!	!	!LO:LB:g=original	!
*	*	*	*	*	*	*	*	*lig	*	*	*	*	*	*lig	*
.	.	.	.	.	.	.	.	1e	De-	1g	-cel-	4b\	-sis	1gg	De-
.	.	.	.	.	.	.	.	.	.	.	.	4g/	.	.	.
.	.	.	.	.	.	.	.	.	.	.	.	2.cc\	De-	.	.
=61-	=61-	=61-	=61-	=61-	=61-	=61-	=61-	=61-	=61-	=61-	=61-	=61-	=61-	=61-	=61-
0r	.	0r	.	0r	.	0r	.	1d	.	2a\	-sis	.	.	1ff	.
.	.	.	.	.	.	.	.	.	.	.	.	8b\L	.	.	.
.	.	.	.	.	.	.	.	.	.	.	.	8a\J	.	.	.
.	.	.	.	.	.	.	.	.	.	2f\	De-	2b\	.	.	.
*	*	*	*	*	*	*	*	*Xlig	*	*	*	*	*	*Xlig	*
!	!	!	!	!	!	!	!	!LO:SIC:v:t=custos c	!	!	!	!	!	!	!
.	.	.	.	.	.	.	.	1c	-o	1g	-o	1cc	-o	1ee	-o
!	!	!LO:LB:g=original	!	!	!	!	!	!LO:LB:g=original	!	!	!	!	!	!	!
=62-	=62-	=62-	=62-	=62-	=62-	=62-	=62-	=62-	=62-	=62-	=62-	=62-	=62-	=62-	=62-
*M3/2	*	*M3/2	*	*M3/2	*	*M3/2	*	*M3/2	*	*M3/2	*	*M3/2	*	*M3/2	*
1c	No-	1g	No-	1cc	No-	1ee	No-	0.r	.	0.r	.	0.r	.	0.r	.
!	!	!LO:TX:b:t=P:problem:# below	!	!	!	!	!	!	!	!	!	!	!	!	!
1d	-è(l)	1f	-è(l)	1a	-è(l)	1ffny	-è(l)	.	.	.	.	.	.	.	.
!LO:SIC:v:t=custos c	!	!	!	!LO:SIC:v:t=custos cc	!	!	!	!	!	!	!	!	!	!	!
1G	No-	1g	No-	1b	No-	1dd	No-	.	.	.	.	.	.	.	.
!LO:LB:g=original	!	!	!	!LO:LB:g=original	!	!	!	!	!	!	!	!	!	!	!
=63-	=63-	=63-	=63-	=63-	=63-	=63-	=63-	=63-	=63-	=63-	=63-	=63-	=63-	=63-	=63-
1c	-è(l)	1g	-è(l)	1cc	-è(l)	1ee	-è(l)	1c	No-	1g	No-	1cc	No-	1ee	No-
!	!	!	!	!	!	!	!	!	!	!	!	!LO:SIC:v:t=custos b	!	!	!
1r	.	1r	.	1r	.	1r	.	1d	-è(l)	1f	-è(l)	1a	-è(l)	1ff	-è(l)
!	!	!	!	!	!	!	!	!	!	!	!	!LO:LB:g=original	!	!	!
1r	.	1r	.	1r	.	1r	.	1G	No-	1g	No-	1b	No-	1dd	No-
=64-	=64-	=64-	=64-	=64-	=64-	=64-	=64-	=64-	=64-	=64-	=64-	=64-	=64-	=64-	=64-
1c	No-	1g	No-	1cc	No-	1ee	No-	1c	-è(l)	1g	-è(l)	1cc	-è(l)	1ee	-è(l)
!	!	!LO:TX:b:t=P:problem:# below	!	!	!	!	!	!	!	!	!	!	!	!	!
1d	-è(l)	1f	-è(l)	1a	-è(l)	1ff	-è(l)	1r	.	1r	.	1r	.	1r	.
1G	No-	1g	No-	1b	No-	1dd	No-	1r	.	1r	.	1r	.	1r	.
=65-	=65-	=65-	=65-	=65-	=65-	=65-	=65-	=65-	=65-	=65-	=65-	=65-	=65-	=65-	=65-
1.c	-è(l)	1.g	-è(l)	1.cc	-è(l)	1.ee	-è(l)	00.r	.	00.r	.	00.r	.	00.r	.
2G/	No-	2g\	No-	2b\	No-	2dd\	No-	.	.	.	.	.	.	.	.
1A	-è(l)	1e,<	-è(l)	1a,<	-è(l)	1cc,<	-è(l)	.	.	.	.	.	.	.	.
=66-	=66-	=66-	=66-	=66-	=66-	=66-	=66-	=66-	=66-	=66-	=66-	=66-	=66-	=66-	=66-
1E	Al-	1e	Al-	1g	Al-	1cc	Al-	.	.	.	.	.	.	.	.
1F/	-l(e-	1.d/	-l(e-	1a\	-l(e-	1cc\	-l(e-	.	.	.	.	.	.	.	.
.	.	.	.	.	.	.	.	.	.	.	.	.	.	.	.
1G	-lu-	.	.	1g	-lu-	1b	-lu-	.	.	.	.	.	.	.	.
.	.	2d/	-lu-	.	.	.	.	.	.	.	.	.	.	.	.
=67-	=67-	=67-	=67-	=67-	=67-	=67-	=67-	=67-	=67-	=67-	=67-	=67-	=67-	=67-	=67-
1C	-i)a	1c	-i)a	1g	-i)a	1cc	-i)a	1c	No-	1e	No-	1ee	No-	1gg	No-
1r	.	1r	.	1r	.	1r	.	1d\	-è(l)	1a\	-è(l)	1dd\	-è(l)	1ff\	-è(l)
.	.	.	.	.	.	.	.	.	.	.	.	.	.	.	.
!	!	!	!	!	!	!LO:SIC:v:t=custos cc	!	!	!	!	!	!	!	!	!
1r	.	1r	.	1r	.	1r	.	1G	No-	1g	No-	1dd	No-	1dd	No-
!	!	!	!	!	!	!LO:LB:g=original	!	!	!	!	!	!	!	!	!
=68-	=68-	=68-	=68-	=68-	=68-	=68-	=68-	=68-	=68-	=68-	=68-	=68-	=68-	=68-	=68-
00.r	.	00.r	.	00.r	.	00.r	.	1.c	.	1.g	-è(l)	1.cc	-è(l)	1.ee	-è(l)
.	.	.	.	.	.	.	.	2G/	.	2g\	No-	2b\	No-	2dd\	No-
.	.	.	.	.	.	.	.	1A	-è(l)	1e	-è(l)	1a	-è(l)	1cc,<	-è(l)
=69-	=69-	=69-	=69-	=69-	=69-	=69-	=69-	=69-	=69-	=69-	=69-	=69-	=69-	=69-	=69-
.	.	.	.	.	.	.	.	1E	Al-	1g	Al-	1cc	Al-	1gg	Al-
.	.	.	.	.	.	.	.	1F/	-l(e-	1a\	-l(e-	1cc\	-l(e-	1ff\	-l(e-
.	.	.	.	.	.	.	.	.	.	.	.	.	.	.	.
.	.	.	.	.	.	.	.	1G	-lu-	1g	-lu-	1b	-lu-	1dd	-lu-
=70-	=70-	=70-	=70-	=70-	=70-	=70-	=70-	=70-	=70-	=70-	=70-	=70-	=70-	=70-	=70-
1c	No-	1e	No-	1g	No-	1cc	No-	1c	-i)a	1g	-i)a	1cc	-i)a	1ee	-i)a
!	!	!LO:TX:b:t=P:problem:# below	!	!	!	!	!	!	!	!	!	!	!	!	!
1A\	-è(l)	1f#X\	-è(l)	1a\	-è(l)	1cc\	-è(l)	1r	.	1r	.	1r	.	1r	.
.	.	.	.	.	.	.	.	.	.	.	.	.	.	.	.
!	!	!	!	!	!	!	!	!	!	!LO:SIC:v:t=custos g	!	!	!	!	!
1G	No-	1g	No-	1b	No-	1dd	No-	1r	.	1r	.	1r	.	1r	.
.	.	.	.	.	.	.	.	.	.	.	.	.	.	.	.
!	!	!	!	!	!	!	!	!	!	!LO:PB:g=original	!	!	!	!	!
=71-	=71-	=71-	=71-	=71-	=71-	=71-	=71-	=71-	=71-	=71-	=71-	=71-	=71-	=71-	=71-
1c	-è(l)	1g	-è(l)	1cc	-è(l)	1ee	-è(l)	1c	No-	1g	No-	1cc	No-	1ee	No-
!	!	!	!	!	!	!	!	!	!	!	!	!	!	!LO:TX:b:t=P:problem:# below	!
!	!	!	!	!	!	!	!	!	!	!	!	!	!	!LO:SIC:v:t=custos gg	!
1r	.	1r	.	1r	.	1r	.	1A\	-è(l)	1a\	-è(l)	1cc\	-è(l)	1ff#\	-è(l)
.	.	.	.	.	.	.	.	.	.	.	.	.	.	.	.
!	!	!	!	!	!	!	!	!	!	!	!	!	!	!LO:LB:g=original	!
1r	.	1r	.	1r	.	1r	.	1G	No-	1b	No-	1dd	No-	1gg	No-
=72-	=72-	=72-	=72-	=72-	=72-	=72-	=72-	=72-	=72-	=72-	=72-	=72-	=72-	=72-	=72-
1C	No-	1g	No-	1cc	No-	1ee	No-	1c	-è(l)	1cc	-è(l)	1ee	-è(l)	1gg	-è(l)
1F/	-è(l)	1a\	-è(l)	1a\	-è(l)	1cc\	-è(l)	1r	.	1r	.	1r	.	1r	.
.	.	.	.	.	.	.	.	.	.	.	.	.	.	.	.
1D	No-	1fny	No-	1b	No-	1dd	No-	1r	.	1r	.	1r	.	1r	.
=73-	=73-	=73-	=73-	=73-	=73-	=73-	=73-	=73-	=73-	=73-	=73-	=73-	=73-	=73-	=73-
1C	-è(l)	1g	-è(l)	1cc	-è(l)	1ee	-è(l)	1C	No-	1g	No-	1g	No-	1ee	No-
1r	.	1r	.	1r	.	1r	.	1F/	-è(l)	1f\	-è(l)	1a\	-è(l)	1cc\	-è(l)
.	.	.	.	.	.	.	.	.	.	.	.	.	.	.	.
1r	.	1r	.	1r	.	1r	.	1D	No-	1f	No-	1b	No-	1dd	No
=74-	=74-	=74-	=74-	=74-	=74-	=74-	=74-	=74-	=74-	=74-	=74-	=74-	=74-	=74-	=74-
1r	.	1r	.	1r	.	1r	.	0C	-è(l)	0g,<	-è(l)	0cc,<	-è(l)	1.ee	-è(l)
1r	.	1r	.	1r	.	1r	.	.	.	.	.	.	.	.	.
.	.	.	.	.	.	.	.	.	.	.	.	.	.	2ffny,<\	.
!	!	!LO:SIC:v:t=custos g	!	!	!	!	!	!	!	!	!	!LO:SIC:v:t=custos dd	!	!	!
1C	Al-	1e	Al-	1cc	Al-	1ee	Al-	1c	Al-	1e	-Al-	1cc	Al-	1gg	Al-
!	!	!LO:LB:g=original	!	!	!	!	!	!	!	!	!	!LO:LB:g=original	!	!	!
=75-	=75-	=75-	=75-	=75-	=75-	=75-	=75-	=75-	=75-	=75-	=75-	=75-	=75-	=75-	=75-
0G	-l(e-	0g	-l(e-	0b	-l(e-	0dd	-l(e-	0G	-l(e-	0g	-l(e-	0dd	-l(e-	0gg	-l(e-
.	.	.	.	.	.	.	.	.	.	.	.	.	.	.	.
1G	-lu-	1g	-lu-	1b	-lu-	1dd	-lu-	1G	-lu-	1g	-lu-	1b	-lu-	1dd	-lu-
=76-	=76-	=76-	=76-	=76-	=76-	=76-	=76-	=76-	=76-	=76-	=76-	=76-	=76-	=76-	=76-
!	!	!	!	!	!	!	!	!LO:SIC:v:t=custos C	!	!	!	!	!	!	!
0C,<	-i)a	0g,<	-i)a	0g	-i)a	0cc,<	-i)a	0c	-i)a	0e,<	-i)a	0cc,<	-i)a	0ee,<	-i)a
.	.	.	.	.	.	.	.	.	.	.	.	.	.	.	.
!	!	!	!	!LO:SIC:v:t=custos b	!	!	!	!LO:LB:g=original	!	!	!	!	!	!	!
1c	No-	1e	No-	1cc	No	1ee	No-	1C	No-	1g	No-	1cc	No-	1ee	No-
!	!	!	!	!LO:PB:g=original	!	!	!	!	!	!	!	!	!	!	!
=77-	=77-	=77-	=77-	=77-	=77-	=77-	=77-	=77-	=77-	=77-	=77-	=77-	=77-	=77-	=77-
0G	-è(l)	0g	-è(l)	0b	Al-	0dd	-è(l)	0G	-è(l)	0g	-è(l)	0dd	-è(l)	0gg	-è(l)
.	.	.	.	.	.	.	.	.	.	.	.	.	.	.	.
1G	No-	1g	No-	1b	-l(e-	1dd	No-	1G	No-	1g	No-	1b	No-	1gg	No-
=78-	=78-	=78-	=78-	=78-	=78-	=78-	=78-	=78-	=78-	=78-	=78-	=78-	=78-	=78-	=78-
0c	-è(l)	0g,<	-è(l)	0g	-lu-	0cc,<	-è(l)	0C	-è(l)	0e,<	-è(l)	0cc,<	-è(l)	0ee,<	-è(l)
.	.	.	.	.	.	.	.	.	.	.	.	.	.	.	.
!LO:SIC:v:t=custos G	!	!	!	!	!	!	!	!	!	!	!	!	!	!	!
1C	Al-	1e	Al-	1cc,<	-i)a	1ee	Al-	1c	Al-	1g	Al-	1cc	Al-	1ee	Al-
!LO:LB:g=original	!	!	!	!	!	!	!	!	!	!	!	!	!	!	!
=79-	=79-	=79-	=79-	=79-	=79-	=79-	=79-	=79-	=79-	=79-	=79-	=79-	=79-	=79-	=79-
0G	-l(e-	0g	-l(e-	0b	No-	0dd	-l(e-	0G	-l(e-	0g	-l(e-	0dd	-l(e-	0dd	-l(e-
.	.	.	.	.	.	.	.	.	.	.	.	.	.	.	.
1G	-lu-	1g	-lu-	1b	-è(l)	1dd	-lu-	1G	-lu-	1g	-lu-	1b	-lu-	1gg	-lu-
=80-	=80-	=80-	=80-	=80-	=80-	=80-	=80-	=80-	=80-	=80-	=80-	=80-	=80-	=80-	=80-
0C,<	-i)a	0g,<	-i)a	0g	No-	0ee,<	-i)a	0c	-i)a	0e,<	-i)a	0cc,<	-i)a	0gg,<M	-i)a
.	.	.	.	.	.	.	.	.	.	.	.	.	.	.	.
1c	Al-	1g	Al-	1cc	-è(l)	1ee	Al-	1C	Al-	1e	Al-	1cc	Al-	1gg	Al-
=81-	=81-	=81-	=81-	=81-	=81-	=81-	=81-	=81-	=81-	=81-	=81-	=81-	=81-	=81-	=81-
0G	-l(e-	0g	-l(e-	0b	Al-	0dd	-l(e-	0G	-l(e-	0g	-l(e-	0b	-l(e-	0gg	-l(e-
.	.	.	.	.	.	.	.	.	.	.	.	.	.	.	.
!	!	!	!	!	!	!	!	!	!	!LO:SIC:v:t=custos e	!	!	!	!LO:SIC:v:t=custos ee	!
1G	-lu-	1g	-lu-	1g	-l(e-	1dd	-lu-	1G	-lu-	1g	-lu-	1b	-lu-	1dd	-lu-
!	!	!	!	!	!	!	!	!	!	!LO:LB:g=original	!	!	!	!LO:LB:g=original	!
=82-	=82-	=82-	=82-	=82-	=82-	=82-	=82-	=82-	=82-	=82-	=82-	=82-	=82-	=82-	=82-
*M2/1	*	*M2/1	*	*M2/1	*	*M2/1	*	*M2/1	*	*M2/1	*	*M2/1	*	*M2/1	*
*met(C|)	*	*met(C|)	*	*met(C|)	*	*met(C|)	*	*met(C|)	*	*met(C|)	*	*met(C|)	*	*met(C|)	*
1c,<	-i)a	2g,<\	-i)a	2g/	-lu-	2cc\	-i)a	1C	-i)a	2.e/	-i)a	2cc,<\	-i)a	2ee,<\	-i)a
.	.	2e/	Al-	1cc\	-i)a	4ee\	Al-	.	.	.	.	1cc\	Al-	4cc\	Al-
.	.	.	.	.	.	4dd\	.	.	.	4f\	.	.	.	4dd\	.
4C/	Al-	2c/	.	.	.	4cc\	.	2.c\	Al-	1g	Al-	.	.	4ee\	.
4D/	.	.	.	.	.	4b/	.	.	.	.	.	.	.	4dd\	.
4E/	l(e-	2g\	.	2g/	Al-	4cc\	.	.	.	.	.	4b\	.	4ee\	.
4F/	.	.	.	.	.	4ee\	.	8Bny\L	.	.	.	4a\	.	4ff\	.
.	.	.	.	.	.	.	.	8A\J	.	.	.	.	.	.	.
=83-	=83-	=83-	=83-	=83-	=83-	=83-	=83-	=83-	=83-	=83-	=83-	=83-	=83-	=83-	=83-
0G	-lu-	1g	-l(e-	0g	-l(elu-	1.dd	-l(e-	1.G	-l(e-	1.g	-l(e-	1.b	-l(e-	1.gg	-l(e-
.	.	2d/	-lu-	.	.	.	.	.	.	.	.	.	.	.	.
.	.	2g\	.	.	.	2dd\	-lu-	2G/	-lu-	2g\	-lu-	2b\	-lu-	2dd\	-lu-
=84-	=84-	=84-	=84-	=84-	=84-	=84-	=84-	=84-	=84-	=84-	=84-	=84-	=84-	=84-	=84-
0c;;l	-i)a	0g;;l	-i)a	0g;;l	-i)a	0cc;;l	-i)a	0C;l	-i)a	0g;;l	-i)a	0cc;;l	-i)a	0ee;;l	-i)a
==	==	==	==	==	==	==	==	==	==	==	==	==	==	==	==
*-	*-	*-	*-	*-	*-	*-	*-	*-	*-	*-	*-	*-	*-	*-	*-
!!!system-decoration: [s1,s2,s3,s4][s5,s6,s7,s8]
!!!RDF**kern: < = below
!!!RDF**kern: l = terminal long
!!!AIN: 1 alto 2 bass 5 soprn
!!!ENC: Berenika Jozajtis
!!!END: 2021-10-25
!!!ENC: Marta Lawrence
!!!END: 2021-11-06
